X:1
T:Title
%%score { 1 | ( 2 3 ) }
L:1/8
Q:1/4=100
M:4/4
K:Ab
V:1 treble nm="Grand Piano"
V:2 bass 
V:3 bass 
V:1
 [Ec]2 [=D_c]>[E=c] [Fd]2 [Ec]>[D_c] | c2 B2 F4 | B2 =A>B c2 B>G | [CB]2 [CA]2 [CE]4 | %4
w: C.~Austin~Miles * * * * *||||
 F2 =E>F [FA]2 [EB]2 | [Ec]2 [CA]2 [Ec]3 [Ec] | [=Dc]2 [DB]2 [DA]2 [DF]2 |[M:3/4] B6 |[M:1/4] EF | %9
w: |||||
[M:4/4] [CA]2 [CA][CA] [DF] [CE]3 | [EA]2 [Ac]2 [ce]4 | [Bd]2 [Ac]2 [GB]4 | [ce]2 [Bd]2 c2 EF | %13
w: ||||
 A A2 A F E3 | A2 c2 [ce]4 | c c2 e [Fd]2 [FA][=EB] | [Ec]2 [DB]2 [CA]4 |] %17
w: ||||
V:2
 [A,,A,]2 [A,,A,]>[A,,A,] [A,,A,]2 [A,,A,]>[A,,A,] | [E,G,E]2 [E,G,D]2 [E,B,D]4 | %2
 [E,G,D]2 [E,_G,C]>[E,=G,D] [E,G,E]2 [E,G,D]>[E,G,D] | [A,,A,]2 [A,,A,]2 [A,,A,]4 | %4
 [D,A,D]2 [D,G,D]>[D,A,D] [D,D]2 [D,A,]2 | [A,,A,]2 [A,,A,]2 [A,,A,]3 [A,,A,] | %6
 [B,,A,]2 [B,,A,]2 [B,,F,]2 [B,,A,]2 |[M:3/4] [E,G,D]6 |[M:1/4] [E,G,D][E,G,D] | %9
[M:4/4] [A,,E,]2 [A,,E,][A,,E,] [A,,A,] [A,,A,]3 | [A,C]2 [A,E]2 [A,E]4 | [E,E]2 [E,E]2 [E,E]4 | %12
 [E,C]2[K:treble] [G,D]2 [A,EA]2 C[_C=D] | [A,CE] [A,CE]2 [A,CE] [A,_C=D] [A,=C]3 | %14
 [A,CE]2 [A,EA]2 [A,E]4 | [A,EA] [A,EA]2 [A,C_G][K:bass] [D,D]2 [D,D][D,A,] | %16
 [E,A,]2 [E,G,]2 [A,,A,]4 |] %17
V:3
 x8 | x8 | x8 | x8 | x8 | x8 | x8 |[M:3/4] x6 |[M:1/4] x2 |[M:4/4] x8 | x8 | x8 | %12
 z4[K:treble] z2 A,2 | x8 | x8 | x4[K:bass] x4 | x8 |] %17

